!! 00000] TT[00
!! NN
!!!OTL: Man hao
!!!ARE: Asia, China,ÿShandong, Wenshang
!! Ethnic Group: Han
!! III, 340
!!!SCT: C0305
!!!YEM: Copyright 1995, estate of Helmut Schaffrath.
**kern
*ICvox
*Ivox
*M2/4
*k[f#c#g#d#]
*E:
{8g#
8b
8g#
16g#
16f#
=1
16f#
8d#
16d#
8c#
8c#
=2
8.B
16c#
8.e
16d#
=3
8c#
16G#
16B
8c#}
{16c#
16c#
=4
4e
4f#
=5
16f#
16d#
16d#
16c#
4B
=6
8.B
16c#
8.e
16d#
=7
8c#
16G#
16B
8c#}
{16c#
16c#
=8
8c#
8e
8c#
8f#
=9
16d#
16c#
16B
16F#
4B
=10
8.B
16c#
8.e
16d#
=11
8c#
16G#
16B
8c#}
{16c#
16c#
=12
16e
16e
16e
16e
16e
8g#
16f#
=13
4e
24e
24f#
24g#
16b
16g#
=14
8.f#
16g#
8b
8g#
=15
4e
4e}
==
!!!AGN: Haozi, Huanghe wohao, Erban hao. Xin minge
!! grosse, schwere Steine festschlagen wegen der Ueberschwemmungen.
!!    Ein Satz, ein Stein. Vgl. hierzu S. 308
!!    Phrasierung nach notierten Atemzeichen vorgenommen. Wenig Verzierungen
!!!ONB: ESAC (Essen Associative Code) Database: CHINA
!!!AMT: simple duple
!!!AIN: vox
!!!EED: Helmut Schaffrath
!!!EEV: 1.0
*-
